X: 945
T: Sunset Waltz
C:Bo Chatmon
B: jims roots
M:3/4
L:1/8
Q: 1/4=100
K:C
V:1 
|:(3gag | "C"{d}e4 (3gag | "B7"^d4 (3gag | "C"{d}e4 ga | c4 de | "F"c4 de |
"Fm"c4 A^G | "C"G6- | G4 (3gag | {d}e4 (3gag | "B7"^d4 (3gag | "C"{d}e4 ga | c4 de |
"F"c4 de | c2- cd ^d2 | "E"e6- | "E7"e4 G^G | "F"A2 ^G2 A2 | "Fm"d2 c2 A2 |
"C"G2- Gc y{_e}[=e2G] | "A"{_e}([=e2G] [e2G]) (3gag | "F"f4 (3gag | "G7"d4 ga | "C"c6- | c4 :|
% abcbook-tune_id 6298c2976948974fca93e940


% abcbook-boost 0
% abcbook-tablature 
% abcbook-transpose 
% abcbook-lastupdated 1654178455695
% abcbook-soundfonts 
% abcbook-repeats 1


